!!!COM: Torelli, Gaspare
!!!CDT:
!!!PTL: Il secondo libro delle canzonette a tre et a quatro voci
!!!PPP: Venice
!!!PPR: Amadino
!!!PDT: 1594
!!!PUB-format:
!!!RISM: 1594-16
!!!rime: 305
!!!OTL: Ne i vostri dolci baci
!!!AGN: Madrigal
!!!SCT: Trm0305h
!!!SCA: Trm0305h
!!!original-voices: 4
!!!extant-voices: 1
!!!complete: N
!!!final: ?
**kern	**text
*part1	*part1
*staff1	*staff1
*I"Canto	*
*I'C	*
*oclefC1	*
*clefG2	*
*k[b-]	*
*F:	*
*omet(C3)	*
*M4/2	*
=1	=1
2g	Ne i
2a	vo-
4a	-stri
2g	dol-
4g	-ci
=2	=2
2b-y	ba-
2.g	-ci,
4g	Ne i
2a	vo-
=3	=3
4a	-stri
2a	dol-
4a	-ci
2g	ba-
4f	-ci
4f	De
=4	=4
4f	l'a-
4f	-pi_è_il
4.e	dol-
8e	-ce
2g	me-
2f	-le,
=5	=5
2f	il
4r	.
2g	dol-
2f	-ce
4e	me-
=6	=6
1f	-le,
2g	Ne i
2a	vo-
=7	=7
4a	-stri
2g	dol-
4g	-ci
2b-y	ba-
[2g	-ci,
=8	=8
4g]	.
4g	Ne i
2a	vo-
4a	-stri
2a	dol-
4a	-ci
=9	=9
2g	ba-
4f	-ci
4f	De
4f	l'a-
4f	-pi_è_il
4.e	dol-
8e	-ce
=10	=10
2g	me-
2f	-le,
2f	il
4r	.
[4g	dol-
=11	=11
4g]	.
2f	-ce
4e	me
2f	le,
2f	E
=12	=12
4.d	v'è_il
8d	mor-
4g	-so
4g	de
2g	l'a-
2g	-pi
=13	=13
0r	.
=14	=14
0r	.
=15	=15
0r	.
=16	=16
*col	*
3f	Dun-
3f	-que_a-
3g	-dol-
3%2f#X	-ci-
3f#X	-to,
=17	=17
3f#i	Dun-
3f#i	-que_a-
3f#i	-dol-
3%2g	-ci-
3g	-to_e
*Xcol	*
=18	=18
1.cc	pun-
2a	-to
=19	=19
4r	.
4a	da
4g	voi,
4g	da
2g	voi
[2f	par-
=20	=20
4f]	.
4f	-to_in
2f	un
2g	pun-
4.a	-to.
8r	.
==	==
*-	*-
!!!RDF**kern: i = editorial accidental
!!!RDF**kern: l = terminal long
!!!ENC: Emiliano Ricciardi
!!!END: 2019/01/30
!!!EED: Schleuse, Paul
!!!EEV: 2019/01/30
!!!YEC: Copyright 2018 Emiliano Ricciardi, All Rights Reserved
!!!ONB: Translated from MusicXML on 2019/01/30 and edited by Craig Stuart Sapp
!!@@BEGIN:	VERSEDATA
!!@SOLERTI:	305
!!@CATALOGNUM:	Trm0305
!!@LAST_MODIFIED: 2020/07/12
!!@TITLE:		Ne i vostri dolci baci
!!@GENRE:		madrigale
!!@MANUSRC:	Amz, Brn, C, Ts<sub>1</sub>, V<sub>8</sub>, V<sub>13/TS1</sub>
!!@PRINTSRC:	8, 9, 11, 12, 13, 15, 20, 24, 29, 33, 67, 145, 141, 166, 169
!!@@BEGIN:	VERSES
!!@ABOUTIT:	Sovra i baci di una bella giovane
!!@ABOUTEN:	On the kisses of a beautiful young lady
!!@EDITOR:	Solerti, Angelo
!!@EDITION_TITLE: Le Rime di Torquato Tasso
!!@EDITION_LOC:	Bologna
!!@EDITION_PUB:	Romagnoli-Dall’Acqua
!!@EDITION_DATE:  1898-1902
!!@EDITION_VOL:	2
!!@EDITION_PAGE:  366
!!@TRANSLATOR:	Emiliano Ricciardi and Amyrose McCue Gill
!!@VERSE:
!!	Ne i vostri dolci baci
!!	De l'Api è il dolce mele,
!!	E v'è l'ago de l'api aspro crudele.
!!	Dunque addolcito e punto
!!	Da voi parto in un punto.
!!@TVERSE:
!!	In your sweet kisses
!!	Is the sweet honey of the bees
!!	And there [too] is the stinger of the bees, biting and cruel.
!!	Thus sweetened and stung
!!	From you I depart at once.
!!@@END:		VERSES
!!@OTHER_CRIT_ED:   Torquato Tasso, <i>Rime d’amore (secondo il codice
!!		Chigiano L VIII 302)</i>, eds. Franco Gavazzeni and
!!		Vercingetorige Martignone, vol. 4 of <i>Edizione
!!		Nazionale delle opere di Torquato Tasso</i>
!!		(Alessandria: Edizioni Dell’Orso, 2004), 172.
!!@ATTRIBUTION_ABOUT:	Secure
!!		<br>
!!		Among other authoritative sources (see Literary
!!		Sources), this poem appears in the autograph Chigiano
!!		L.VIII.302 (Biblioteca Vaticana, Rome), compiled
!!		around 1584&ndash;85.
!!@DATING:	In or before 1581
!!	<br>
!!	The earliest datable appearance of this poem is in Manuzio's 1581 print of the <i>Rime</i> (see Literary Sources).
!!@DEDICATEE:
!!@COMMENTARY:
!!@@END:		VERSEDATA
!!@@BEGIN:	SETTING
!!@CATALOGNUM:	Trm0305h
!!@RIMETITLE:	Ne i vostri dolci baci
!!@SOLERTI:	305
!!@COMPOSER:	Torelli, Gaspare
!!@PRINCEPSTITLE:	Il secondo libro delle canzonette a tre et a quatro voci
!!@PRINCEPSLOC:	Venetia
!!@NORMLOC:	Venice
!!@NORMPUB:	Amadino
!!@NORMPUBSHORT:	Amadino
!!@PRINCEPSPUB:	Amadino
!!@PRINCEPSYEAR:	1594
!!@PRINCEPSRISM:	1594-16
!!@REPRINTS:	
!!@OVOICES:	4
!!@EXTANTVOICES:	1
!!@PARTBOOKS:	
!!@EXTPARTBOOKS:	
!!@OCLEFS:	C1
!!@OMENSURATION:	C3
!!@OKEYSIG:	b-
!!@FINAL:	?
!!@TIMPEDITOR:	Schleuse, Paul
!!@NOTE:		
!!@@END:		SETTING
